X:9812
T:Longdans
R:Longdans
O:Sweden
M:3/4
K:Am
A2|\
A2B2 c2|c2Bc B2|B2G2 G2|B2AB A2|\
A2B2 c2|c2Bc B2|B2G2 G2|A4:|
|:cd|\
e2c2 cd|e2c2 ce|g2ge ag|e2c2 cd|\
e2c2 cd|e2c2 cc|B2G2 G2|A4:|
